bug-stop-outline.svg

<svg fill="currentColor" viewBox="0 0 24 24"><path d="M19 7h-2.81c-.45-.8-1.07-1.5-1.82-2L16 3.41 14.59 2l-2.17 2.17a6 6 0 0 0-2.83 0L7.41 2 6 3.41 7.62 5c-.75.5-1.36 1.21-1.81 2H3v2h2.09c-.06.33-.09.66-.09 1v1H3v2h2v1c0 .34.03.67.09 1H3v2h2.81A6 6 0 0 0 13 19.65V19c0-.57.09-1.14.25-1.69-.66.45-1.45.69-2.25.69-2.21 0-4-1.79-4-4v-4c0-2.21 1.79-4 4-4s4 1.79 4 4v4c0 .19 0 .39-.05.58.59-.54 1.29-.96 2.05-1.23V13h2v-2h-2v-1c0-.34-.03-.67-.09-1H19zm-6 2v2H9V9zm0 4v2H9v-2zm3 3h6v6h-6z"/></svg>

<svg  viewBox="0 0 24 24" fill="currentColor"><path  d="M19 7H16.19C15.74 6.2 15.12 5.5 14.37 5L16 3.41L14.59 2L12.42 4.17C11.96 4.06 11.5 4 11 4S10.05 4.06 9.59 4.17L7.41 2L6 3.41L7.62 5C6.87 5.5 6.26 6.21 5.81 7H3V9H5.09C5.03 9.33 5 9.66 5 10V11H3V13H5V14C5 14.34 5.03 14.67 5.09 15H3V17H5.81C7.26 19.5 10.28 20.61 13 19.65V19C13 18.43 13.09 17.86 13.25 17.31C12.59 17.76 11.8 18 11 18C8.79 18 7 16.21 7 14V10C7 7.79 8.79 6 11 6S15 7.79 15 10V14C15 14.19 15 14.39 14.95 14.58C15.54 14.04 16.24 13.62 17 13.35V13H19V11H17V10C17 9.66 16.97 9.33 16.91 9H19V7M13 9V11H9V9H13M13 13V15H9V13H13M16 16H22V22H16V16Z"/></svg>
